X: 3542
T: Big John McNeil
R: reel
M: 4/4
K: Amajor
|:A,2 CE FECE|AE (3EEE F ECE|A,2 CE FECE|B,AGF EDCB,|
A,2 (3B,CE FECE|AECE FECE|CD (3DDD CDEB,|(3CB,A, B,C A,3 G,:|
|:eA (3AAA eAfA|eA (3AAA efga|eA (3AAA agfe|d2 Bd =GdBd|
eA (3AAA eAfA|eA (3AAA Aefg|agfe fedc|1 BAGF EFGA:|2 BAGF EDCB,||

